X:1
T:[ID 1-141b]
T:[ID 1-141b]
T:Bezeichnung standardisiert: Menuett Men\"uet 8.
T:Urheber unbekannt Datum in der hier transkribierten schriftlichen Quelle: 1767
C:Urheber unbekannt
C:Datum in der hier transkribierten schriftlichen Quelle: 1767
L:1/8
M:3/4
K:D
V:1 treble 
V:1
 D2 FDFA | d4 f2 | fe e2 g2 | gf f4 | D2 FDFA | d4 f2 | edcBA^G | A6 :: A2 AG F2 | GE [A,E]4 | %10
 Gc e2 G2 | FE D4 | B2 (3gfe (3dcB | A2 dc d2 | (3BAG F2 E2 |{E} D6 :| %16

